dist/intermediate-svg/calendar.svg

<?xml version="1.0" encoding="utf-8"?><svg width="24" height="24" fill="none" xmlns="http://www.w3.org/2000/svg" viewBox="0 0 24 24"><path stroke="#333" d="M3.5 6h17v14h-17zM3.5 9.5h17M7 4v4"/><path d="M6 11.5h2M6 14.5h2M16 11.5h2M16 14.5h2M6 17.5h2M16 17.5h2M11 11.5h2M11 14.5h2M11 17.5h2" stroke="#0094FF"/><path d="M17 4v4" stroke="#333"/></svg>

<?xml version="1.0" encoding="utf-8"?><svg width="24" height="24" fill="none" xmlns="http://www.w3.org/2000/svg" viewBox="0 0 24 24"><path stroke="#333" d="M3.5 6H20.5V20H3.5zM3.5 9.5H20.5M7 4V8"/><path d="M6 11.5H8M6 14.5H8M16 11.5H18M16 14.5H18M6 17.5H8M16 17.5H18M11 11.5H13M11 14.5H13M11 17.5H13" stroke="#0094FF"/><path d="M17 4V8" stroke="#333"/></svg>
